;FLAVOR:Marlin
;TIME:14848
;Filament used: 9.88278m
;Layer height: 0.2
;MINX:37.75
;MINY:27
;MINZ:0.2
;MAXX:197.25
;MAXY:208
;MAXZ:11
;TARGET_MACHINE.NAME:Creality Ender-3
;Generated with Cura_SteamEngine 5.10.0
M140 S70
M105
M190 S70
M104 S240
M105
M109 S240
; Ender 3 Custom Start G-code
G92 E0 ; Reset Extruder
G28 ; Home all axes
G29
G1 Z2.0 F3000 ; Move Z Axis up little to prevent scratching of Heat Bed
G1 X0.1 Y20 Z0.3 F5000.0 ; Move to start position
G1 X0.1 Y200.0 Z0.3 F1500.0 E15 ; Draw the first line
G1 X0.4 Y200.0 Z0.3 F5000.0 ; Move to side a little
G1 X0.4 Y20 Z0.3 F1500.0 E30 ; Draw the second line
G92 E0 ; Reset Extruder
G1 Z2.0 F3000 ; Move Z Axis up little to prevent scratching of Heat Bed
G1 X5 Y20 Z0.3 F5000.0 ; Move over to prevent blob squish
M82 ;absolute extrusion mode
G92 E0
G92 E0
G1 F2700 E-5
;LAYER_COUNT:55
;LAYER:0
M107
G0 F6000 X39.915 Y31.469 Z0.2
;TYPE:SKIRT
G1 F2700 E0
G1 F900 X40.529 Y30.711 E0.03244
G1 X41.206 Y30.013 E0.06479
G1 X41.943 Y29.376 E0.09719
G1 X42.733 Y28.806 E0.12959
G1 X43.509 Y28.343 E0.15964
G1 X44.449 Y27.89 E0.19435
G1 X45.361 Y27.548 E0.22674
G1 X46.299 Y27.289 E0.25911
G1 X47.266 Y27.111 E0.29181
G1 X48.405 Y27.015 E0.32983
G1 X49.062 Y27 E0.35169
G1 X58.054 Y27 E0.65076
G1 X58.936 Y27.013 E0.6801
G1 X59.907 Y27.072 E0.71246
G1 X60.789 Y27.202 E0.74211
G1 X62.343 Y27.496 E0.79471
G1 X64.874 Y27.929 E0.88012
G1 X67.389 Y28.286 E0.9646
G1 X69.836 Y28.562 E1.04651
G1 X72.408 Y28.782 E1.13236
G1 X74.839 Y28.918 E1.21335
G1 X78.769 Y29 E1.34409
G1 X185.701 Y29.001 E4.90066
G1 X186.434 Y29.013 E4.92504
G1 X187.406 Y29.072 E4.95743
G1 X188.369 Y29.218 E4.98983
G1 X189.316 Y29.449 E5.02225
G1 X190.204 Y29.749 E5.05342
G1 X191.096 Y30.139 E5.0858
G1 X191.979 Y30.626 E5.11934
G1 X192.73 Y31.128 E5.14939
G1 X193.545 Y31.786 E5.18423
G1 X194.243 Y32.464 E5.21659
G1 X194.879 Y33.201 E5.24897
G1 X195.449 Y33.991 E5.28137
G1 X195.911 Y34.767 E5.31141
G1 X196.365 Y35.709 E5.34619
G1 X196.694 Y36.587 E5.37737
G1 X196.963 Y37.559 E5.41092
G1 X197.14 Y38.525 E5.44358
G1 X197.235 Y39.655 E5.4813
G1 X197.25 Y40.33 E5.50375
G1 X197.249 Y114.414 E7.9678
G1 X197.226 Y116.025 E8.02138
G1 X197.191 Y117.259 E8.06244
G1 X197.191 Y119.791 E8.14666
G1 X197.25 Y122.33 E8.23113
G1 X197.249 Y196.4 E10.69471
G1 X197.238 Y197.163 E10.72009
G1 X197.181 Y198.136 E10.75251
G1 X197.036 Y199.099 E10.7849
G1 X196.807 Y200.045 E10.81727
G1 X196.496 Y200.969 E10.84969
G1 X196.104 Y201.86 E10.88207
G1 X195.636 Y202.712 E10.9144
G1 X195.114 Y203.493 E10.94565
G1 X194.481 Y204.278 E10.97919
G1 X193.856 Y204.929 E11.0092
G1 X193.067 Y205.617 E11.04402
G1 X192.307 Y206.167 E11.07522
G1 X191.44 Y206.684 E11.1088
G1 X190.562 Y207.106 E11.1412
G1 X189.651 Y207.448 E11.17356
G1 X188.712 Y207.709 E11.20598
G1 X187.746 Y207.887 E11.23865
G1 X186.595 Y207.985 E11.27707
G1 X185.92 Y208 E11.29952
G1 X61.814 Y207.999 E15.42731
G1 X61.081 Y207.988 E15.45169
G1 X60.109 Y207.931 E15.48407
G1 X59.146 Y207.785 E15.51647
G1 X58.2 Y207.556 E15.54884
G1 X57.276 Y207.244 E15.58128
G1 X56.386 Y206.852 E15.61362
G1 X55.563 Y206.401 E15.64484
G1 X54.724 Y205.84 E15.67841
G1 X54.02 Y205.274 E15.70845
G1 X53.267 Y204.549 E15.74322
G1 X52.63 Y203.813 E15.77559
G1 X52.1 Y203.082 E15.80562
G1 X51.564 Y202.185 E15.84038
G1 X51.142 Y201.307 E15.87278
G1 X50.8 Y200.395 E15.90518
G1 X50.54 Y199.457 E15.93755
G1 X50.362 Y198.488 E15.97032
G1 X50.263 Y197.285 E16.01047
G1 X50.25 Y196.676 E16.03073
G1 X50.25 Y162.467 E17.16852
G1 X50.213 Y159.873 E17.25481
G1 X50.104 Y157.327 E17.33956
G1 X49.929 Y154.847 E17.42225
G1 X49.684 Y152.38 E17.50471
G1 X49.356 Y149.817 E17.59065
G1 X48.969 Y147.354 E17.67358
G1 X48.513 Y144.9 E17.75659
G1 X47.977 Y142.417 E17.84108
G1 X47.38 Y139.978 E17.9246
G1 X46.712 Y137.545 E18.00851
G1 X45.988 Y135.185 E18.09062
G1 X45.163 Y132.74 E18.17644
G1 X44.298 Y130.392 E18.25967
G1 X43.374 Y128.095 E18.34202
G1 X42.347 Y125.736 E18.42759
G1 X41.276 Y123.45 E18.51156
G1 X40.146 Y121.206 E18.59512
G1 X39.052 Y119.168 E18.67205
G1 X38.632 Y118.288 E18.70448
G1 X38.292 Y117.376 E18.73686
G1 X38.042 Y116.472 E18.76805
G1 X37.859 Y115.47 E18.80193
G1 X37.765 Y114.327 E18.84008
G1 X37.75 Y113.67 E18.86193
G1 X37.751 Y38.526 E21.36123
G1 X37.762 Y37.825 E21.38455
G1 X37.82 Y36.853 E21.41694
G1 X37.966 Y35.889 E21.44937
G1 X38.196 Y34.943 E21.48175
G1 X38.508 Y34.021 E21.51412
G1 X38.901 Y33.13 E21.54651
G1 X39.371 Y32.277 E21.5789
G1 X39.915 Y31.469 E21.6113
G0 F6000 X40.226 Y31.72
G1 F900 X40.816 Y30.989 E21.64254
G1 X41.468 Y30.315 E21.67373
G1 X42.177 Y29.7 E21.70495
G1 X42.938 Y29.15 E21.73618
G1 X43.714 Y28.687 E21.76624
G1 X44.59 Y28.264 E21.79859
G1 X45.468 Y27.933 E21.8298
G1 X46.372 Y27.682 E21.861
G1 X47.3 Y27.51 E21.89239
G1 X48.439 Y27.414 E21.93041
G1 X49.071 Y27.4 E21.95144
G1 X58.048 Y27.4 E22.25001
G1 X58.912 Y27.412 E22.27875
G1 X59.849 Y27.468 E22.30997
G1 X60.715 Y27.595 E22.33909
G1 X62.269 Y27.889 E22.39169
G1 X64.818 Y28.325 E22.4777
G1 X67.333 Y28.682 E22.56219
G1 X69.802 Y28.961 E22.64483
G1 X72.374 Y29.18 E22.73068
G1 X74.831 Y29.318 E22.81253
G1 X78.761 Y29.4 E22.94327
G1 X185.695 Y29.401 E26.49991
G1 X186.41 Y29.412 E26.5237
G1 X187.347 Y29.468 E26.55492
G1 X188.275 Y29.607 E26.58613
G1 X189.188 Y29.828 E26.61737
G1 X190.044 Y30.116 E26.64741
G1 X190.936 Y30.506 E26.67979
G1 X191.757 Y30.959 E26.71098
G1 X192.508 Y31.461 E26.74102
G1 X193.267 Y32.073 E26.77345
G1 X193.941 Y32.726 E26.80466
G1 X194.555 Y33.435 E26.83586
G1 X195.105 Y34.196 E26.86709
G1 X195.567 Y34.972 E26.89713
G1 X195.99 Y35.849 E26.92951
G1 X196.319 Y36.727 E26.9607
G1 X196.57 Y37.632 E26.99193
G1 X196.741 Y38.559 E27.02328
G1 X196.836 Y39.689 E27.061
G1 X196.85 Y40.33 E27.08233
G1 X196.849 Y114.408 E29.54617
G1 X196.826 Y116.014 E29.59959
G1 X196.791 Y117.248 E29.64065
G1 X196.791 Y119.791 E29.72523
G1 X196.85 Y122.33 E29.8097
G1 X196.849 Y196.395 E32.27311
G1 X196.839 Y197.14 E32.29789
G1 X196.785 Y198.077 E32.32911
G1 X196.647 Y199.006 E32.36035
G1 X196.428 Y199.918 E32.39154
G1 X196.13 Y200.808 E32.42276
G1 X195.753 Y201.668 E32.45399
G1 X195.303 Y202.49 E32.48516
G1 X194.781 Y203.271 E32.51641
G1 X194.192 Y204.001 E32.5476
G1 X193.567 Y204.652 E32.57762
G1 X192.832 Y205.293 E32.61006
G1 X192.072 Y205.843 E32.64126
G1 X191.266 Y206.324 E32.67248
G1 X190.421 Y206.732 E32.70369
G1 X189.543 Y207.063 E32.73489
G1 X188.639 Y207.316 E32.76612
G1 X187.712 Y207.488 E32.79748
G1 X186.561 Y207.586 E32.8359
G1 X185.92 Y207.6 E32.85722
G1 X61.82 Y207.599 E36.9848
G1 X61.104 Y207.589 E37.00862
G1 X60.168 Y207.535 E37.0398
G1 X59.239 Y207.396 E37.07105
G1 X58.327 Y207.177 E37.10224
G1 X57.437 Y206.878 E37.13347
G1 X56.578 Y206.501 E37.16467
G1 X55.755 Y206.05 E37.19588
G1 X54.975 Y205.528 E37.2271
G1 X54.271 Y204.962 E37.25714
G1 X53.569 Y204.287 E37.28954
G1 X52.954 Y203.578 E37.32075
G1 X52.424 Y202.847 E37.35078
G1 X51.924 Y202.011 E37.38318
G1 X51.516 Y201.166 E37.41439
G1 X51.185 Y200.288 E37.4456
G1 X50.933 Y199.384 E37.47681
G1 X50.761 Y198.455 E37.50824
G1 X50.663 Y197.276 E37.54759
G1 X50.65 Y196.667 E37.56785
G1 X50.65 Y162.467 E38.70534
G1 X50.613 Y159.867 E38.79183
G1 X50.504 Y157.31 E38.87695
G1 X50.328 Y154.819 E38.96001
G1 X50.081 Y152.329 E39.04323
G1 X49.753 Y149.766 E39.12917
G1 X49.364 Y147.292 E39.21247
G1 X48.906 Y144.827 E39.29586
G1 X48.366 Y142.322 E39.38109
G1 X47.769 Y139.883 E39.46461
G1 X47.097 Y137.439 E39.54891
G1 X46.367 Y135.057 E39.63177
G1 X45.542 Y132.612 E39.7176
G1 X44.673 Y130.254 E39.80118
G1 X43.741 Y127.935 E39.88431
G1 X42.714 Y125.576 E39.96988
G1 X41.638 Y123.28 E40.05422
G1 X40.503 Y121.026 E40.13816
G1 X39.413 Y118.995 E40.21482
G1 X39.007 Y118.148 E40.24606
G1 X38.678 Y117.269 E40.27728
G1 X38.428 Y116.365 E40.30847
G1 X38.258 Y115.437 E40.33985
G1 X38.165 Y114.318 E40.3772
G1 X38.15 Y113.67 E40.39876
G1 X38.151 Y38.532 E42.89786
G1 X38.161 Y37.848 E42.92061
G1 X38.216 Y36.912 E42.95179
G1 X38.355 Y35.983 E42.98304
G1 X38.575 Y35.071 E43.01424
G1 X38.874 Y34.182 E43.04544
G1 X39.252 Y33.322 E43.07668
G1 X39.703 Y32.5 E43.10787
G1 X40.226 Y31.72 E43.1391
G0 F6000 X40.538 Y31.971
G1 F900 X41.104 Y31.267 E43.16915
G1 X41.731 Y30.617 E43.19918
G1 X42.412 Y30.024 E43.22922
G1 X43.143 Y29.494 E43.25925
G1 X43.919 Y29.031 E43.2893
G1 X44.732 Y28.638 E43.31934
G1 X45.576 Y28.318 E43.34936
G1 X46.446 Y28.075 E43.3794
G1 X47.334 Y27.909 E43.40945
G1 X48.473 Y27.813 E43.44747
G1 X49.08 Y27.8 E43.46766
G1 X58.043 Y27.8 E43.76577
G1 X58.889 Y27.811 E43.79391
G1 X59.791 Y27.864 E43.82396
G1 X60.641 Y27.988 E43.85253
G1 X62.195 Y28.282 E43.90514
G1 X64.762 Y28.721 E43.99176
G1 X67.277 Y29.078 E44.07624
G1 X69.768 Y29.36 E44.15962
G1 X72.34 Y29.578 E44.24548
G1 X74.823 Y29.718 E44.32819
G1 X78.753 Y29.8 E44.45893
G1 X185.689 Y29.801 E48.01564
G1 X186.387 Y29.811 E48.03886
G1 X187.289 Y29.864 E48.06891
G1 X188.182 Y29.996 E48.09893
G1 X189.06 Y30.207 E48.12897
G1 X189.916 Y30.495 E48.159
G1 X190.743 Y30.857 E48.18903
G1 X191.535 Y31.292 E48.21908
G1 X192.286 Y31.794 E48.24913
G1 X192.989 Y32.361 E48.27917
G1 X193.639 Y32.988 E48.30921
G1 X194.231 Y33.67 E48.33924
G1 X194.761 Y34.401 E48.36928
G1 X195.223 Y35.177 E48.39931
G1 X195.616 Y35.99 E48.42935
G1 X195.934 Y36.835 E48.45938
G1 X196.177 Y37.705 E48.48942
G1 X196.342 Y38.593 E48.51946
G1 X196.437 Y39.723 E48.55718
G1 X196.45 Y40.33 E48.57737
G1 X196.449 Y114.402 E51.04102
G1 X196.426 Y116.003 E51.09427
G1 X196.391 Y117.237 E51.13533
G1 X196.391 Y119.791 E51.22028
G1 X196.45 Y122.33 E51.30475
G1 X196.449 Y196.39 E53.76799
G1 X196.44 Y197.117 E53.79217
G1 X196.389 Y198.019 E53.82222
G1 X196.258 Y198.913 E53.85227
G1 X196.049 Y199.791 E53.88229
G1 X195.763 Y200.648 E53.91234
G1 X195.402 Y201.476 E53.94239
G1 X194.97 Y202.268 E53.97239
G1 X194.469 Y203.02 E54.00245
G1 X193.903 Y203.724 E54.03249
G1 X193.278 Y204.375 E54.06251
G1 X192.597 Y204.969 E54.09256
G1 X191.866 Y205.5 E54.12261
G1 X191.092 Y205.964 E54.15263
G1 X190.279 Y206.358 E54.18268
G1 X189.435 Y206.678 E54.2127
G1 X188.565 Y206.923 E54.24276
G1 X187.678 Y207.089 E54.27277
G1 X186.527 Y207.187 E54.31119
G1 X185.92 Y207.2 E54.33139
G1 X61.825 Y207.199 E58.4588
G1 X61.127 Y207.19 E58.48202
G1 X60.226 Y207.139 E58.51204
G1 X59.332 Y207.007 E58.54209
G1 X58.454 Y206.798 E58.57211
G1 X57.597 Y206.511 E58.60217
G1 X56.77 Y206.15 E58.63218
G1 X55.977 Y205.717 E58.66223
G1 X55.226 Y205.216 E58.69226
G1 X54.522 Y204.65 E58.72231
G1 X53.871 Y204.024 E58.75234
G1 X53.278 Y203.343 E58.78238
G1 X52.748 Y202.612 E58.81241
G1 X52.284 Y201.837 E58.84245
G1 X51.89 Y201.024 E58.8725
G1 X51.57 Y200.18 E58.90252
G1 X51.326 Y199.31 E58.93258
G1 X51.16 Y198.422 E58.96262
G1 X51.063 Y197.267 E59.00117
G1 X51.05 Y196.658 E59.02143
G1 X51.05 Y162.467 E60.15863
G1 X51.013 Y159.861 E60.24531
G1 X50.904 Y157.293 E60.3308
G1 X50.727 Y154.791 E60.41423
G1 X50.478 Y152.278 E60.49822
G1 X50.15 Y149.715 E60.58416
G1 X49.759 Y147.23 E60.66783
G1 X49.299 Y144.754 E60.75159
G1 X48.755 Y142.227 E60.83757
G1 X48.158 Y139.788 E60.92108
G1 X47.482 Y137.333 E61.00577
G1 X46.746 Y134.929 E61.08939
G1 X45.921 Y132.484 E61.17522
G1 X45.048 Y130.116 E61.25916
G1 X44.108 Y127.775 E61.34307
G1 X43.081 Y125.416 E61.42864
G1 X42 Y123.11 E61.51335
G1 X40.86 Y120.846 E61.59766
G1 X39.773 Y118.821 E61.6741
G1 X39.381 Y118.007 E61.70415
G1 X39.063 Y117.162 E61.73418
G1 X38.821 Y116.292 E61.76421
G1 X38.657 Y115.404 E61.79425
G1 X38.565 Y114.309 E61.83079
G1 X38.55 Y113.67 E61.85205
G1 X38.551 Y38.537 E64.35099
G1 X38.56 Y37.871 E64.37314
G1 X38.612 Y36.97 E64.40316
G1 X38.744 Y36.076 E64.43321
G1 X38.954 Y35.198 E64.46324
G1 X39.241 Y34.342 E64.49327
G1 X39.603 Y33.514 E64.52332
G1 X40.036 Y32.722 E64.55335
G1 X40.538 Y31.971 E64.58339
G1 F2700 E59.58339
;MESH:HDD case (lazy).stl
G0 F6000 X48.085 Y38.424
G0 X49.174 Y38.424
G0 X50.32 Y112.428
G0 X57.348 Y112.6
;TYPE:WALL-INNER
G1 F2700 E64.58339
G1 F900 X57.348 Y39.4 E67.01803
G1 X50.148 Y39.4 E67.25751
G1 X50.148 Y112.6 E69.69215
G1 X57.348 Y112.6 E69.93162
G0 F6000 X57.748 Y113
G1 F900 X57.748 Y39 E72.39287
G1 X49.748 Y39 E72.65895
G1 X49.748 Y113 E75.1202
G1 X57.748 Y113 E75.38628
G0 F6000 X58.148 Y113.4
G1 F900 X58.148 Y38.6 E77.87414
G1 X49.348 Y38.6 E78.16683
G1 X49.348 Y113.4 E80.65469
G1 X58.148 Y113.4 E80.94738
G0 F6000 X58.548 Y113.8
;TYPE:WALL-OUTER
G1 F900 X58.548 Y38.2 E83.46184
G1 X48.948 Y38.2 E83.78114
G1 X48.948 Y113.8 E86.29561
G1 X58.548 Y113.8 E86.6149
G0 F6000 X58.27 Y113.52
G0 X57.248 Y112.24
G0 X56.988 Y112.24
;TYPE:SKIN
G1 F900 X50.508 Y112.24 E86.83043
G1 X50.508 Y39.76 E89.24113
G1 X56.988 Y39.76 E89.45665
G1 X56.988 Y112.24 E91.86735
G0 F6000 X57.248 Y112.24
G0 X50.32 Y112.428
G0 X50.248 Y111.802
G0 X50.708 Y111.802
G1 F900 X50.946 Y112.04 E91.87854
G0 F6000 X51.511 Y112.04
G1 F900 X50.708 Y111.236 E91.91633
G0 F6000 X50.708 Y110.671
G1 F900 X52.077 Y112.04 E91.98073
G0 F6000 X52.643 Y112.04
G1 F900 X50.708 Y110.105 E92.07174
G0 F6000 X50.708 Y109.539
G1 F900 X53.208 Y112.04 E92.18936
G0 F6000 X53.774 Y112.04
G1 F900 X50.708 Y108.974 E92.33358
G0 F6000 X50.708 Y108.408
G1 F900 X54.34 Y112.04 E92.50441
G0 F6000 X54.905 Y112.04
G1 F900 X50.708 Y107.842 E92.70185
G0 F6000 X50.708 Y107.277
G1 F900 X55.471 Y112.04 E92.92589
G0 F6000 X56.037 Y112.04
G1 F900 X50.708 Y106.711 E93.17655
G0 F6000 X50.708 Y106.145
G1 F900 X56.602 Y112.04 E93.45381
G0 F6000 X56.788 Y111.659
G1 F900 X50.708 Y105.58 E93.73977
G0 F6000 X50.708 Y105.014
G1 F900 X56.788 Y111.094 E94.02575
G0 F6000 X56.788 Y110.528
G1 F900 X50.708 Y104.448 E94.31174
G0 F6000 X50.708 Y103.882
G1 F900 X56.788 Y109.962 E94.59772
G0 F6000 X56.788 Y109.396
G1 F900 X50.708 Y103.317 E94.88368
G0 F6000 X50.708 Y102.751
G1 F900 X56.788 Y108.831 E95.16967
G0 F6000 X56.788 Y108.265
G1 F900 X50.708 Y102.185 E95.45565
G0 F6000 X50.708 Y101.62
G1 F900 X56.788 Y107.699 E95.74161
G0 F6000 X56.788 Y107.134
G1 F900 X50.708 Y101.054 E96.0276
G0 F6000 X50.708 Y100.488
G1 F900 X56.788 Y106.568 E96.31358
G0 F6000 X56.788 Y106.002
G1 F900 X50.708 Y99.923 E96.59954
G0 F6000 X50.708 Y99.357
G1 F900 X56.788 Y105.437 E96.88553
G0 F6000 X56.788 Y104.871
G1 F900 X50.708 Y98.791 E97.17151
G0 F6000 X50.708 Y98.226
G1 F900 X56.788 Y104.305 E97.45747
G0 F6000 X56.788 Y103.74
G1 F900 X50.708 Y97.66 E97.74346
G0 F6000 X50.708 Y97.094
G1 F900 X56.788 Y103.174 E98.02944
G0 F6000 X56.788 Y102.608
G1 F900 X50.708 Y96.529 E98.3154
G0 F6000 X50.708 Y95.963
G1 F900 X56.788 Y102.043 E98.60139
G0 F6000 X56.788 Y101.477
G1 F900 X50.708 Y95.397 E98.88737
G0 F6000 X50.708 Y94.832
G1 F900 X56.788 Y100.911 E99.17333
G0 F6000 X56.788 Y100.346
G1 F900 X50.708 Y94.266 E99.45932
G0 F6000 X50.708 Y93.7
G1 F900 X56.788 Y99.78 E99.7453
G0 F6000 X56.788 Y99.214
G1 F900 X50.708 Y93.134 E100.03129
G0 F6000 X50.708 Y92.569
G1 F900 X56.788 Y98.648 E100.31725
G0 F6000 X56.788 Y98.083
G1 F900 X50.708 Y92.003 E100.60323
G0 F6000 X50.708 Y91.437
G1 F900 X56.788 Y97.517 E100.88922
G0 F6000 X56.788 Y96.951
G1 F900 X50.708 Y90.872 E101.17518
G0 F6000 X50.708 Y90.306
G1 F900 X56.788 Y96.386 E101.46116
G0 F6000 X56.788 Y95.82
G1 F900 X50.708 Y89.74 E101.74715
G0 F6000 X50.708 Y89.175
G1 F900 X56.788 Y95.254 E102.03311
G0 F6000 X56.788 Y94.689
G1 F900 X50.708 Y88.609 E102.31909
G0 F6000 X50.708 Y88.043
G1 F900 X56.788 Y94.123 E102.60508
G0 F6000 X56.788 Y93.557
G1 F900 X50.708 Y87.478 E102.89104
G0 F6000 X50.708 Y86.912
G1 F900 X56.788 Y92.992 E103.17702
G0 F6000 X56.788 Y92.426
G1 F900 X50.708 Y86.346 E103.46301
G0 F6000 X50.708 Y85.781
G1 F900 X56.788 Y91.86 E103.74897
G0 F6000 X56.788 Y91.295
G1 F900 X50.708 Y85.215 E104.03495
